X:1
T:Be a Ray of Sunshine
T:George Coles Stebbins
T:Be a Ray of Sunshine
T:Public Domain
T:Public Domain
C:George Coles Stebbins
Z:Public Domain
%%score ( 1 2 ) ( 3 4 )
L:1/8
M:4/4
K:Ab
V:1 treble 
V:2 treble 
V:3 bass 
V:4 bass 
V:1
 [Ec]2 [Ec]2 [DB]2 [CA]2 | [Ec]4 [CE]4 | [DF]2 [EG]2 [FA]2 [DB]2 | [Ec]6 z2 | %4
w: 1.~Be a ray of|sun- shine|ev- ery- where you|go,|
w: 2.~Be a ray of|sun- shine|ev- ery- where you|go;|
w: 3.~Be a ray of|sun- shine|ev- ery- where you|go;|
w: 4.~Be a ray of|sun- shine|ev- ery- where you|go;|
 [Ae]2 [Ec]2 [EB]2 [EA]2 | [Ec]4 [CA]4 | [=DF]2 [DG]2 [DA]2 [Dc]2 | [EB]6 z2 | %8
w: Shin- ing for the|Sav- ior|with a stead- y|glow;|
w: Com- fort bring to|o- thers,|stoop to raise the|low;|
w: Cheer- ful- ness is|need- ed,|this you can be-|stow;|
w: Stars will shine the|bright- er|in your crown, I|know;|
 [Ec]2 [Ec]2 [DB]2 [CA]2 | [Ec]4 [CE]4 | [DF]2 [EG]2 [FA]2 [FB]2 | [=Ec]6 z2 | %12
w: Bring- ing smiles to|sad ones,|wip- ing tears a-|way,|
w: Kind words cost but|lit- tle,|smiles bring plea- sures,|too;|
w: Help to chase the|sha- dows|from this world a-|way,|
w: Sun- shine brought to|o- thers|will re- flect on|you,|
 [FB]2 [Fc]2 [Fd]2 [Ff]2 | [Ae]4 [EA]4 | [Ec]2 [Ae]2 [GB]2 [Ec]2 | [CA]8 ||"^Refrain" c2 c2 B2 A2 | %17
w: Make your- self a|bless- ing|ev- ery pass- ing|day.||
w: They may lift a|bur- den;|let them not be|few.|Be a ray of|
w: Bring- ing joy and|glad- ness|like a shin- ing|ray.||
w: Heav’n will be the|sweet- er—|keep the end in|view.||
 c4 E4 | F2 G2 A2 B2 | [ce]6 z2 | e2 c2 B2 A2 | [cf]4 [Ae]4 | F2 G2 A2 F2 | [Be]6 z2 |] %24
w: |||||||
w: ev- ery-|you go, Shin- ing|Sav-|ior with a stead-||||
w: |||||||
w: |||||||
V:2
 x8 | x8 | x8 | x8 | x8 | x8 | x8 | x8 | x8 | x8 | x8 | x8 | x8 | x8 | x8 | x8 || e4 e4 | e8 | %18
w: ||||||||||||||||||
w: ||||||||||||||||sun- shine|where|
 f4 e4 | x8 | e4 =e4 | x8 | =d8 | x8 |] %24
w: ||||||
w: for the||y glow;||||
V:3
 [A,,A,]2 [A,,A,]2 [A,,E,]2 [A,,E,]2 | [A,,A,]4 [A,,A,]4 | [D,A,]2 [D,A,]2 [D,A,]2 [F,A,]2 | %3
w: ~ ~ ~ ~|~ ~|~ ~ ~ ~|
 A,6 z2 | [A,C]2 A,2 [E,G,]2 [C,A,]2 | [A,,A,]4 [A,,A,]4 | [B,,A,]2 [B,,G,]2 [B,,F,]2 [B,,A,]2 | %7
w: ~|~ ~ ~ ~|~ ~|~ ~ ~ Be|
 [E,G,]6 z2 | [A,,A,]2 [A,,A,]2 [A,,E,]2 [A,,E,]2 | [A,,A,]4 [A,,A,]4 | %10
w: a|ray of sun- shine|filled with|
 [D,A,]2 [D,A,]2 [D,A,]2 [D,F,]2 | [C,G,]6 z2 | [D,B,]2 [C,=A,]2 [B,,B,]2 [D,_A,]2 | %13
w: Heav- en’s light, Send-|ing|forth a mess- age|
 [C,A,]4 [A,,C]4 | [E,A,]2 [E,C]2 [E,D]2 [E,G,]2 | [A,,A,]8 || A,2 A,2 [E,G,]2 [C,A,]2 | %17
w: beau- ti-|ful and bright. *|||
 [A,,A,]4 [A,,C]4 | [D,D]2 [D,B,]2 [C,E]2 [E,D]2 | [A,C]6 z2 | [A,C]2 A,2 [E,G,]2 [C,A,]2 | %21
w: ||||
 [A,,A,]4 [A,,C]4 | [B,,A,]2 [B,,G,]2 [B,,F,]2 [B,,A,]2 | [E,G,]6 z2 |] %24
w: |||
V:4
 x8 | x8 | x8 | A,6 x2 | x2 A,2 x4 | x8 | x8 | x8 | x8 | x8 | x8 | x8 | x8 | x8 | x8 | x8 || %16
w: |||~|~||||||||||||
 A,2 A,2 x4 | x8 | x8 | x8 | x2 A,2 x4 | x8 | x8 | x8 |] %24
w: ||||||||

